X:389
T:Al Pumba Dale
R:Xiraldilla
C:Tradicional
S:Música Tradicional Asturiana, (C) Tello & Tito. Asturies, 2001.
S:http://pagina.de/MusTradAst <telloytito@asturies.org>
N:Cuartetas y seguidillas usadas en el corro, estrofas sueltas.
O:Teberga
A:Asturies
Z:DyC en Teberga
M:2/4
L:1/8
Q:1/4=120
K:Cm
GG|:GG F=E|FC FC|FC FF|
[M:3/4]
|ED C2 D2|
[M:2/4]
|ED/C/ D=B,|C2 D2|ED/C/ D=B,|
[M:3/4]
|[1 C3z GG :|[2 C2 z4||


